X:1
T:Title
L:1/8
M:4/4
K:C
V:1 treble nm="Grand Piano"
V:1
 z4 z[Q:1/4=100] GGG | G2 E2 F3 E | D2 G2 G3 G | A2 G2 E4- | E4- EEEE | D2 E2 F4 | F2 F2 G3 F | %7
 E2 ^F2 G4- | G4- Gccc | c2 B2 G4 | B4- BAAA | F2 A2 Bc d2- | d2 G2 c3 B | A2 G2 FE D2- | %14
 D2 A2 GABc | d2 B2 c4- | c6 z2 |] %17

